X: 23496
T: Lexie MacAskill
R: reel
M: 4/4
K: Edorian
e3e ae (3eee|e2dB GA (3Bcd|e2 (e/f/e) deze|zg{a}fd ~e3B|
de (3eee deee-|eedB GA (3Bcd|{d}e2 (3eee deee-|egfd ~e3f||
(3ggg fg ~e2dB|ABdB GA (3Bcd|gzfg ~e2dB|defd e2z2|
g2fg ~e2dB|ABdB GA (3Bcd|gzfg ~e2dB|defd ~e3B||
"A'"e2ee- ee e2-|eedB GA (3Bcd|deeeze2e-|eg{a}fd ~e3B|
e3e- ee e2-|eedB GA (3Bcd|dee{a}e ze2e|zg{a}fd ~e3g||
"B'"(3aaa ea ~e2dB|~A3B GA (3Bcd|azea ~e2dB|de{a}fd ~e3g|
(3aaa ba ~e2dB|~A3B GA (3Bcd|azea ~e2dB|de{a}fd ez3||

